X:1
T:O der Alles, 87.87
T:O der Alles, 87.87
T:Neues Geistreiches Gesangbuch (Halle, 1705)
T:Public Domain Courtesy of the Cyber Hymnal™
C:Neues Geistreiches Gesangbuch (Halle, 1705)
Z:Public Domain
Z:Courtesy of the Cyber Hymnal™
%%score ( 1 2 ) ( 3 4 )
L:1/8
Q:1/4=108
M:4/4
K:Eb
V:1 treble 
V:2 treble 
V:3 bass 
V:4 bass 
V:1
 [G,C]2 [=B,D]2 [CE]2 D2 | [CE]2 [CF]2 [DG]2 [DG]2 | [Gc]2 [Fd]2 [Ee]2 [Ad]2 | [Gc]2 [G=B]2 [Ec]4 | %4
 [Ee]2 [Ge]2 [Gd]2 [Gd]2 | [Ec]2 (dc) [G=B]2 [DG]2 | [CE]2 [CF]2 [CG]2 [CA]2 | [CE]2 [=B,D]2 C4 |] %8
V:2
 x6 D2 | x8 | x8 | x8 | x8 | x2 A2 x4 | x8 | x4 C4 |] %8
V:3
 [C,E,]2 [G,,G,]2 [C,G,]2 [=B,,G,]2 | [C,G,]2 [A,,C]2 [G,,C]2 [G,,=B,]2 | %2
 [E,G,]2 [D,=B,]2 [C,C]2 [F,D]2 | [G,E]2 [G,D]2 [C,C]4 | [C,G,]2 [E,C]2 [G,C]2 [G,=B,]2 | %5
 [A,C]2 (FE) [G,D]2 [G,=B,]2 | [C,G,]2 [F,A,]2 [E,C]2 [F,A,]2 | G,2 [G,,G,]2 [C,=E,]4 |] %8
V:4
 x8 | x8 | x8 | x8 | x8 | x2 F,2 x4 | x8 | G,2 x6 |] %8

